X:1
T:Seventeen Come Sunday
M:4/4
L:1/8
K:Ador
E2|C2A,2B,2G,2|A,2A,2A,2(B,C)|(D2B,2)G,2B,2|D2E2(E3F)|[M:3/2]G2E2G4A4|G2E2G6F2|[M:4/4]E2D2C2A,2|E2F2G2B,2|C2B,2A,4|B,B, B,B, A,4|A,2E2E2D2|(C2B,2)A,4-|A,4z2|]
w:As I walked out one May morn-ing One_ May_ morn-ing ea-rly 'Twas_ then I spied a pret-ty maid So hand-some and so clev-er With my rue, rum, ray Fol the rid-dle ay Whack fa loo-ra li_do_